app/dist/common/images/ceco-environmental.svg

<svg fill="none" height="18" viewBox="0 0 18 18" width="18" xmlns="http://www.w3.org/2000/svg"><path d="m0 0h18v18h-18z" fill="#f0f3fa"/><path d="m11.4068 13.5769c-.6316.2813-1.3569.4231-2.18039.4231-.75097 0-1.44346-.1205-2.07746-.3616-.63634-.2411-1.18612-.5838-1.65402-1.0258-.46556-.442-.83286-.9714-1.09722-1.5883-.26436-.6168-.39771-1.29516-.39771-2.0373 0-.75869.13569-1.44647.40473-2.06334.26904-.61688.64336-1.14158 1.11828-1.5741.47491-.43252 1.03405-.76577 1.67273-.99976.64102-.23162 1.33116-.3498 2.07044-.3498.68547 0 1.35922.11818 2.02362.35453.6621.23635 1.2002.58378 1.6119 1.03994l-1.5908 1.55519c-.4521-.6074-1.2649-.94966-1.99272-.94966-1.60771 0-2.81818 1.38273-2.81818 3.00119 0 1.61231 1.20524 2.99881 2.81818 2.99881.78932 0 1.56492-.4082 2.04882-1.0655l1.633 1.5009c-.4328.4797-.9615.8603-1.5932 1.1415z" fill="#41669b"/></svg>

<!-- by TradingView --><svg width="18" height="18" viewBox="0 0 18 18" fill="none" xmlns="http://www.w3.org/2000/svg">
<rect width="18" height="18" fill="#F0F3FA"/>
<path d="M11.4068 13.5769C10.7752 13.8582 10.0499 14 9.22641 14C8.47544 14 7.78295 13.8795 7.14895 13.6384C6.51261 13.3973 5.96283 13.0546 5.49493 12.6126C5.02937 12.1706 4.66207 11.6412 4.39771 11.0243C4.13335 10.4075 4 9.72914 4 8.987C4 8.22831 4.13569 7.54053 4.40473 6.92366C4.67377 6.30678 5.04809 5.78208 5.52301 5.34956C5.99792 4.91704 6.55706 4.58379 7.19574 4.3498C7.83676 4.11818 8.5269 4 9.26618 4C9.95165 4 10.6254 4.11818 11.2898 4.35453C11.9519 4.59088 12.49 4.93831 12.9017 5.39447L11.3109 6.94966C10.8588 6.34226 10.046 6 9.31818 6C7.71047 6 6.5 7.38273 6.5 9.00119C6.5 10.6135 7.70524 12 9.31818 12C10.1075 12 10.8831 11.5918 11.367 10.9345L13 12.4354C12.5672 12.9151 12.0385 13.2957 11.4068 13.5769Z" fill="#41669B"/>
</svg>
